Adwaita++-Light/panel/16/hexchat-highlight.svg

<svg height="16" width="16" xmlns="http://www.w3.org/2000/svg">
  <path d="m3.9453125 2c-.3147281-.0002571-.6056516.1633916-.7636719.4277344l-3.06249998 5.140625c-.15898279.2665715-.15898279.5956138 0 .8613281l3.06249998 5.1425785c.1579328.264.4488563.427734.7636719.427734h6.1132815c.31499 0 .603348-.163734.761718-.427734l3.060547-5.1425785c.159246-.2657143.159246-.5947566 0-.8613281l-3.060547-5.140625c-.15837-.2638285-.446728-.4274772-.761718-.4277344zm.6289063 2h4.8554687l.0585937.0976562-2.4882812 2.4882813-2.4863281-2.4863281zm5.9687502 1.8710938 1.265625 2.1289062-1.265625 2.128906-2.1289065-2.128906zm-7.0839846.0019531 2.1269531 2.1269531-2.1269531 2.126953-1.2675782-2.126953zm3.5410156 3.5410156 2.4863281 2.4863285-.0585937.099609h-4.8535156l-.0605469-.099609z" fill="#444"/>
  <path d="m12.432348 2.0003749c-.34391-.0003749-.542257.3485228-.367903.6019463l.7614 1.0983681.757401 1.0984431c.186351.2678234.64943.2678234.834981 0l.7606-1.0983681.757401-1.0983682c.182351-.2678233-.047988-.6009712-.416691-.6023961z" fill="#4285f4"/>
</svg>

<svg xmlns="http://www.w3.org/2000/svg" width="16" height="16" version="1.1">
 <defs>
  <style id="current-color-scheme" type="text/css">
   .ColorScheme-Text { color:#444444; } .ColorScheme-Highlight { color:#4285f4; }
  </style>
 </defs>
 <path style="fill:currentColor" class="ColorScheme-Text" d="M 3.9453125 2 C 3.6305844 1.9997429 3.3396609 2.1633916 3.1816406 2.4277344 L 0.11914062 7.5683594 C -0.039842165 7.8349309 -0.039842165 8.1639732 0.11914062 8.4296875 L 3.1816406 13.572266 C 3.3395734 13.836266 3.6304969 14 3.9453125 14 L 10.058594 14 C 10.373584 14 10.661942 13.836266 10.820312 13.572266 L 13.880859 8.4296875 C 14.040105 8.1639732 14.040105 7.8349309 13.880859 7.5683594 L 10.820312 2.4277344 C 10.661942 2.1639059 10.373584 2.0002572 10.058594 2 L 3.9453125 2 z M 4.5742188 4 L 9.4296875 4 L 9.4882812 4.0976562 L 7 6.5859375 L 4.5136719 4.0996094 L 4.5742188 4 z M 10.542969 5.8710938 L 11.808594 8 L 10.542969 10.128906 L 8.4140625 8 L 10.542969 5.8710938 z M 3.4589844 5.8730469 L 5.5859375 8 L 3.4589844 10.126953 L 2.1914062 8 L 3.4589844 5.8730469 z M 7 9.4140625 L 9.4863281 11.900391 L 9.4277344 12 L 4.5742188 12 L 4.5136719 11.900391 L 7 9.4140625 z"/>
 <path style="fill:currentColor" class="ColorScheme-Highlight" d="M 12.432348,2.0003749 C 12.088438,2 11.890091,2.3488977 12.064445,2.6023212 l 0.7614,1.0983681 0.757401,1.0984431 c 0.186351,0.2678234 0.64943,0.2678234 0.834981,0 l 0.7606,-1.0983681 0.757401,-1.0983682 C 16.118579,2.3345728 15.88824,2.0014249 15.519537,2 Z"/>
</svg>
